X: 35
T: Black Coffee
C: Jonathan Jensen
O: Baltimore, Maryland
%R: jig
Z: Collected and edited 2014 by John Chambers <jc:trillian.mit.edu>
B: GEMS The Best of the Country Dance and Song Society Diamond Jubilee Music, Dance and Song Contest 1993 p.66 #1
M: 6/8
L: 1/8
K: Dm
% - - - - - - - - - - - - - - - - - - - - - - - - -
A |\
"Dm"d2e dcA | "Gm"G2A GFD | "Dm"F2D "Dm/C"F2A | "Gm/Bb"ded "A"^c2A | "Dm"d2e dcA | "Gm"G2A "(G7)"GFD |
"F"C2A "C7"GFD | "F"F3- F2 :: A | "F"c2d "F/E"c2d | "F/D"c2d "F/C"cAF | "Bb"f2g "Bb/A"f2g | "Bb/G"f2g "C7"fed |
"F"c2c "F/E"c2d | "F/D"c2d "F/C"cAF |[1 "Gm/Bb"G2A "C"GFD | "F"F3- F2 :|[2 "Gm"G2A "A7"GFE | "Dm"D3- D2 |]

